X:1
T:Title
%%score ( 1 2 ) ( 3 4 )
L:1/8
Q:1/4=85
M:6/8
K:Bb
V:1 treble nm="Grand Piano, Soprano"
V:2 treble 
V:3 bass nm="Choir Pad, Judgment Day (Vaughan)"
V:4 bass 
V:1
 [DF][DF]>[_D=E] [=DF] [Fd]2 | [FB]/[FB]/[Gc][GB] [EG][EG]<[DF] | [DF][DF]>[EG] [DB] [Fd]2 | %3
w: By~James~David~Vaughan * * * *|||
 [FB] [Fc]2- [Fc]2- [Fc]/ z/ | [DF]/[DF]<[DF][_D=E]/ [=DF] [Fd]2 | [FB][Gc][GB] [EG][EG]<[DF] | %6
w: |||
 F/F/[EG][EG] [EB] [Fd]2 | [Ec] [DB]2- [DB]2- [DB]/ z/ | [DB]/[DF]<[DB][DB]/ [DB][DF]>[DF] | %9
w: |||
 z B2- B2- B/ z/ | [Fc]/F<[Fc][Fc]/ [FB][Fd]>[Fd] | z B2- B2- B/ z/ | [DF][DF]>[_D=E] [=DF] [Fd]2 | %13
w: ||||
 [FB][Gc][GB] [EG] [DF]2 | F [EG]2 [EB][Fd]<[Fd] | z B2- B3- | B6 |] %17
w: ||||
V:2
 x6 | x6 | x6 | x6 | x6 | x6 | x6 | x6 | x6 | [EG] D2 E D2 | x6 | [Ec] D2 E D2 | x6 | x6 | x6 | %15
 [Ec]D<D E D2- | D6 |] %17
V:3
 [B,,B,][B,,B,]>[B,,B,] [B,,B,] [B,,B,]2 | [D,B,]/[D,B,]/[E,B,][E,B,] [E,B,][B,,B,]<[B,,B,] | %2
 [B,,B,][B,,B,]>[B,,B,] [B,,B,] [B,,B,]2 | [D,B,] [F,A,]2- [F,A,]2- [F,A,]/ z/ | %4
 [B,,B,]/[B,,B,]<[B,,B,][B,,B,]/ [B,,B,] [B,,B,]2 | [D,B,][E,B,][E,B,] [E,B,][B,,B,]<[B,,B,] | %6
 [D,B,]/[D,B,]/[E,B,][E,B,] [G,C] [F,B,]2 | F, [B,,F,]2- [B,,F,]2- [B,,F,]/ z/ | %8
 [B,,F,]/[B,,B,]<[B,,F,][B,,F,]/ [B,,F,][B,,B,]>[B,,B,] | [B,,B,] F,2 G, F,2 | %10
 [F,A,]/[F,A,]<[F,A,][F,A,]/ [D,B,][F,B,]>[F,B,] | [F,A,] B,2 G, F,2 | %12
 [B,,B,][B,,B,]>[B,,B,] [B,,B,] [B,,B,]2 | [D,B,][E,B,][E,B,] [E,B,] [B,,B,]2 | %14
 [D,B,] [E,B,]2 [G,C][F,B,]<[F,A,] | [F,A,]B,<F, G, F,2- | F,6 |] %17
V:4
 x6 | x6 | x6 | x6 | x6 | x6 | x6 | x6 | x6 | z B,,2- B,,2- B,,/ z/ | x6 | z B,,2- B,,2- B,,/ z/ | %12
 x6 | x6 | x6 | z B,,2- B,,3- | B,,6 |] %17

